X:1
T:Title
%%score { ( 1 4 ) | ( 2 3 ) }
L:1/8
M:4/4
K:G
V:1 treble nm="Grand Piano"
V:4 treble 
V:2 bass 
V:3 bass 
V:1
 z4 z2[Q:1/4=110] D2 | G2 G2 GA B2 | [GB]2 [FA]2 [FA]2 D2 | [FA]2 [FA]2 [FA][GB] [Ac]2 | %4
[M:3/4] [Ac]2 B2 B2 |[M:1/4] B2 |[M:4/4] d2 d2 dc B2 | .[CEA]2 [EB]2 [Ec]2 E2 | D>B B2 B2 G2 | %9
 A4 [B,G]4 | G3 A G4 | B3 c B4 | d4 d4 | d6 z2 | [Ge]4 z4 | d4 B4 | z4 A4 | [DFA]6 z2 | %18
 [^DFB]4 [DFB]2 [B,FA]2 | [B,EG]4 [B,EG]2 [B,EG]2 | [DFd]4 [DAd]2 [DAc]2 | B6 z2 | d3 e d4 | %23
 B3 c B4 | d2- [Bd]2 d2- [Fd]2 |[M:3/4] G6 |] %26
V:2
 z4 z2 [G,B,]2 | [G,B,D]2 [G,B,D]2 [G,D]-[G,CD] [G,DG]2 | [D,D]2 [D,D]2 [D,D]2 [D,F,]2 | %3
 [D,D]2 [D,D]2 [D,D]2 [D,D]2 |[M:3/4][K:treble] [G,D]2 [G,DG]2 [G,DG]2 |[M:1/4] [G,DG]2 | %6
[M:4/4] [B,DG]2 [B,DG]2 [B,G][A,F] [G,DG]2 | z A, [B,,^G,]2 [A,,A,]2 [C,=G,C]2 | %8
 [D,G,B,]>[D,G,D] [D,G,D]2 [D,G,D]2 [D,G,B,]2 | [D,F,C]4 [G,,G,]4 | [G,B,D]3 [G,CD] [G,B,D]4 | %11
 [G,DG]3 [G,EG] [G,DG]4 | [B,G]2 D2[K:bass] z2 A,2 | [G,B,G]6 z2 | C4 [E,C]2 [C,C]2 | %15
 [G,B,G]4 [G,DG]4 | [A,DF]4 [^CE]2 E2 | D,6 z2 | B,,4 B,,2 ^D,2 | E,4 E,2 E,2 | D,4 F,2 D,2 | %21
 [G,DG]6 z2 | [G,B,G]3 [G,CG] [G,B,G]4 | [G,DG]3 [G,EG] [G,DG]4 | B,2 D2 z2 A,2 | %25
[M:3/4] [G,B,D]6 |] %26
V:3
 x8 | z4 .B,2 z2 | x8 | x8 |[M:3/4][K:treble] x6 |[M:1/4] x2 |[M:4/4] z4 D2 z2 | C,2 z2 z4 | x8 | %9
 x8 | x8 | x8 | G,4[K:bass] D,4 | x8 | C,2 z2 z4 | x8 | z4 A,4 | x8 | x8 | x8 | x8 | x8 | x8 | x8 | %24
 D,4 D,4 |[M:3/4] x6 |] %26
V:4
 x8 | x8 | x8 | x8 |[M:3/4] x6 |[M:1/4] x2 |[M:4/4] x8 | x8 | x8 | x8 | x8 | x8 | z2 B2 [CA]2 F2 | %13
 x8 | z2 D,2 [Ge]2 [Ge]2 | x8 | A4 z2 G2 | x8 | x8 | x8 | x8 | x8 | x8 | x8 | G2 z2 [CA]2 z2 | %25
[M:3/4] x6 |] %26

